X:7
T:Artillery Rout, or Hopkins Whim THO4.007, The
M:6/8
L:1/8
Z:vmp. Peter Dunk 2010/11.from a transcription by Fynn Titford-Mock 2007
B:Thompson's Compleat Collection of 200 Favourite Country Dances Volume IV.
Q:3/8=110
K:D
D2 E F2 D|d2 c B2 A|Bcd GAB|EF"G.Fl.""_Vio."G [cC][BB,][AA,]|\
D2 E F2 D|d2 c B2 A|Bcd AGF|[EA,][EA,][EA,] [E3A,3]:|
|:"G.Fl.""_Vio." [AA,][cC][eE] [AA,][cC][eE]|DFA DFA|[AA,][cC][eE] [AA,][cC][eE]|\
DFG ABc|dAB AGF|ABG FGE|FAd GFE|DDD D3:|

